X:1
T:Wells
T:Transcribed from The Missouri Harmony, 1820
T:Israel Holdroyd, 1722 F Major          Arranged by Allen Carden, 1820
T:Isaac Watts, 1719 (Psalm 100)                                   88. 88. (L.M.)                   
T:No Copyright.  Transcribed from Suffolk Harmony, 1786.
Z:No Copyright.  Transcribed from Suffolk Harmony, 1786.
%%score [ 1 2 3 4 ]
L:1/8
M:2/2
K:F
V:1 treble nm="Tr." snm="Tr."
V:2 treble nm="C." snm="C."
V:3 treble-8 nm="T." snm="T."
V:4 bass nm="B." snm="B."
V:1
 A4 c2 c2 | A4 c4 | B2 A2 G4- | G4 G4 | G2 G2 A4 | c4 d2 c2 | A8 | c4 B2 A2 | G4 A4 | c2 B2 c4- | %10
 c4 c4 | F2 G2 G4 | d4 d2 c2 | A8 |] %14
V:2
"_Ye  nations round the earth, rejoice ____  Before the Lord, your sovereign King;   Serve him with cheerful heart and voice,  With  all  your tongues his glory sing." C4 F2 F2 | %1
 D4 C4 | F2 D2 E4- | E4 E4 | G2 G2 F4 | A4 D2 E2 | C8 | F4 E2 F2 | D4 C4 | F2 D2 E4- | E4 C4 | %11
 F2 D2 E4 | F4 G2 G2 | F8 |] %14
V:3
 F4 A2 c2 | f4 e4 | f2 d2 c4- | c4 c4 | c2 c2 c4 | A4 B2 G2 | F8 | A4 B2 c2 | d4 e4 | f2 d2 c4- | %10
 c4 G4 | A2 B2 c4 | A4 B2 G2 | F8 |] %14
V:4
 F,4 F,2 E,2 | F,4 A,4 | F,2 G,2 C,4- | C,4 C,4 | C,2 C,2 F,4 | F,4 B,,2 C,2 | F,8 | F,4 G,2 A,2 | %8
 G,4 C4 | F,2 G,2 C,4- | C,4 E,4 | F,2 D,2 C,4 | D,4 B,,2 C,2 | F,8 |] %14

